src-assets/img/Logo-altra-consulting.svg

<svg width="178" height="75" viewBox="0 0 178 75" fill="none" xmlns="http://www.w3.org/2000/svg">
<g id="Logo altra" clip-path="url(#clip0_146_40887)">
<path id="Vector" d="M59.2 44.6699C59.2 61.0199 45.95 74.2699 29.6 74.2699C13.25 74.2699 0 61.0199 0 44.6699C0 28.3199 13.25 15.0699 29.6 15.0699C45.95 15.0699 59.2 28.3199 59.2 44.6699Z" fill="white"/>
<path id="Vector_2" d="M78.6301 68.83C79.9501 68.83 80.6901 68.32 81.1501 67.84C81.6101 67.38 81.7201 67.09 81.9001 67.09C82.0301 67.09 82.1201 67.18 82.1201 67.31C82.1201 67.55 80.7401 70.19 77.1801 70.19C74.9001 70.19 72.8601 68.32 72.8601 65.8C72.8601 62.35 76.4801 59.88 79.0501 59.88C80.9801 59.88 82.7401 61.22 82.7401 63C82.7401 63.92 82.0801 64.73 81.1401 64.73C80.3101 64.73 79.8501 64.12 79.8501 63.35C79.8501 62.41 80.3301 61.92 80.3301 61.16C80.3301 60.81 79.9401 60.41 78.9501 60.41C76.8201 60.41 75.4201 62.82 75.4201 65.22C75.4201 67.3 76.7401 68.84 78.6501 68.84" fill="#92AEB9"/>
<path id="Vector_3" d="M90.1601 60.27C87.9201 60.27 86.5201 63.65 86.5201 67.03C86.5201 68.65 87.2201 69.8 88.4501 69.8C90.6901 69.8 92.0901 66.42 92.0901 63.04C92.0901 61.42 91.3901 60.28 90.1601 60.28M94.7701 64.41C94.7701 67.29 92.0301 70.2 88.5201 70.2C86.5701 70.2 83.8501 68.91 83.8501 65.68C83.8501 62.8 86.5901 59.89 90.1001 59.89C92.0501 59.89 94.7701 61.18 94.7701 64.41Z" fill="#92AEB9"/>
<path id="Vector_4" d="M100.65 63.65C101.88 61.04 103.2 59.87 104.71 59.87C106.31 59.87 107.04 60.84 107.04 62.37C107.04 63.69 105.75 67.68 105.75 68.43C105.75 68.83 105.99 69.18 106.47 69.18C107.02 69.18 107.55 68.67 107.87 68.04C108.31 67.18 108.24 66.83 108.48 66.83C108.63 66.83 108.7 66.92 108.7 67.11C108.7 67.37 107.82 70.18 105.36 70.18C104.11 70.18 103.41 69.17 103.41 68.14C103.41 66.98 104.7 62.7 104.7 61.53C104.7 61.02 104.39 60.74 103.95 60.74C102.66 60.74 100.83 63.77 100.2 66.18L99.1499 70.17C98.7299 70.08 98.3399 69.95 97.9199 69.95C97.4999 69.95 97.1099 69.99 96.6899 70.17L98.3099 62.88C98.4399 62.33 98.5099 61.98 98.5099 61.56C98.5099 60.99 98.2199 60.73 97.9599 60.73C97.6099 60.73 97.0999 61.06 96.7099 61.72C96.0299 62.86 96.1199 63.37 95.8799 63.37C95.7499 63.37 95.6799 63.3 95.6799 63.15C95.6799 62.58 96.8399 59.86 98.8399 59.86C99.9099 59.86 100.84 60.67 100.84 62.01C100.84 62.63 100.73 63.02 100.6 63.59L100.64 63.63L100.65 63.65Z" fill="#92AEB9"/>
<path id="Vector_5" d="M114.71 59.88C116.38 59.88 118.35 60.71 118.35 62.18C118.35 62.79 117.93 63.26 117.3 63.26C114.8 63.26 117.1 60.28 114.54 60.28C113.4 60.28 112.45 60.92 112.45 61.79C112.45 63.79 117.56 63.94 117.56 66.84C117.56 68.82 116 70.2 112.99 70.2C109.98 70.2 109.04 68.73 109.04 67.76C109.04 66.99 109.59 66.49 110.25 66.49C112.51 66.49 110.38 69.8 113.23 69.8C114.55 69.8 115.49 69.19 115.49 68.02C115.49 65.8 110.64 65.98 110.64 62.86C110.64 61.3 112.2 59.88 114.7 59.88" fill="#92AEB9"/>
<path id="Vector_6" d="M126.72 66.81C125.75 68.81 124.46 70.19 122.88 70.19C121.12 70.19 120.38 68.96 120.38 67.78C120.38 65.89 121.76 62.25 121.76 61.39C121.76 61 121.54 60.67 121.06 60.67C120.51 60.67 119.98 61.11 119.41 62.32C119.26 62.65 119.19 62.93 119.02 62.93C118.91 62.93 118.85 62.86 118.85 62.73C118.85 62.49 119.68 59.88 121.94 59.88C123.28 59.88 124.09 60.54 124.09 62.05C124.09 63.34 122.71 67.36 122.71 68.44C122.71 69.03 123.04 69.49 123.63 69.49C125.14 69.49 126.61 66.42 126.92 65.19L128.24 59.97C128.61 60.12 129.01 60.28 129.47 60.28C129.97 60.28 130.37 60.08 130.65 59.97C129.84 63.99 128.96 67.87 128.96 68.37C128.96 68.87 129.13 69.31 129.57 69.31C130.23 69.31 130.84 68.23 131.19 67.2C131.28 66.94 131.3 66.67 131.5 66.67C131.63 66.67 131.68 66.8 131.68 66.89C131.68 67.11 130.89 70.18 128.67 70.18C127.33 70.18 126.63 69.3 126.63 67.85C126.63 67.39 126.7 67.06 126.76 66.84L126.72 66.8V66.81Z" fill="#92AEB9"/>
<path id="Vector_7" d="M135.34 56.67C135.34 55.64 133.72 55.84 133.72 55.4C133.72 54.87 134.73 55.27 138.37 54C137.45 58.67 135.58 67.47 135.58 68.2C135.58 68.62 135.73 68.92 136.13 68.92C136.72 68.92 137.16 68.31 137.47 67.74C137.8 67.13 137.91 66.86 138.04 66.86C138.19 66.86 138.26 66.95 138.26 67.08C138.26 67.26 137.27 70.2 134.9 70.2C134.02 70.2 133.12 69.67 133.12 68.14C133.12 67.31 135.34 57.56 135.34 56.68" fill="#92AEB9"/>
<path id="Vector_8" d="M146.34 61.32H143.79C143.22 64.33 142.5 67.24 142.5 67.86C142.5 68.67 143.09 69.04 143.64 69.04C144.43 69.04 144.96 68.65 145.42 68.27C145.71 68.03 145.79 67.92 145.86 67.92C145.97 67.92 146.04 67.99 146.04 68.09C146.04 68.29 144.79 70.18 142.35 70.18C140.62 70.18 139.96 69.37 139.96 68.07C139.96 67.41 140.62 64.84 141.34 61.31H139.67C140.68 60.63 143.11 58.83 144.72 56.92H144.76L144.06 60.04H146.91L146.34 61.31V61.32Z" fill="#92AEB9"/>
<path id="Vector_9" d="M151.95 54.65C152.83 54.65 153.53 55.35 153.53 56.16C153.53 56.93 152.85 57.94 151.71 57.94C151.18 57.94 150.15 57.65 150.15 56.32C150.15 55.49 150.96 54.65 151.95 54.65ZM151.91 61.69C151.91 62.66 150.35 67.72 150.35 68.32C150.35 68.78 150.57 69.04 151.01 69.04C151.78 69.04 152.37 67.92 152.66 67.31C152.79 67.03 152.86 66.92 152.95 66.92C153.06 66.92 153.15 66.99 153.15 67.1C153.15 67.19 152.38 70.19 149.75 70.19C148.72 70.19 147.91 69.53 147.91 68.26C147.91 66.85 149.47 62.49 149.47 61.52C149.47 61.1 149.23 60.88 148.92 60.88C148.52 60.88 148.02 61.25 147.54 62.06C147.08 62.85 147.01 63.33 146.82 63.33C146.73 63.33 146.67 63.26 146.67 63.15C146.67 62.69 147.79 59.86 150.12 59.86C151.26 59.86 151.94 60.56 151.94 61.68" fill="#92AEB9"/>
<path id="Vector_10" d="M158.73 63.65C159.96 61.04 161.28 59.87 162.79 59.87C164.39 59.87 165.12 60.84 165.12 62.37C165.12 63.69 163.83 67.68 163.83 68.43C163.83 68.83 164.07 69.18 164.56 69.18C165.11 69.18 165.63 68.67 165.96 68.04C166.4 67.18 166.33 66.83 166.57 66.83C166.72 66.83 166.79 66.92 166.79 67.11C166.79 67.37 165.91 70.18 163.45 70.18C162.2 70.18 161.5 69.17 161.5 68.14C161.5 66.98 162.79 62.7 162.79 61.53C162.79 61.02 162.48 60.74 162.04 60.74C160.75 60.74 158.93 63.77 158.29 66.18L157.24 70.17C156.82 70.08 156.43 69.95 156.01 69.95C155.59 69.95 155.2 69.99 154.78 70.17L156.4 62.88C156.53 62.33 156.6 61.98 156.6 61.56C156.6 60.99 156.31 60.73 156.05 60.73C155.7 60.73 155.2 61.06 154.8 61.72C154.12 62.86 154.21 63.37 153.97 63.37C153.84 63.37 153.77 63.3 153.77 63.15C153.77 62.58 154.93 59.86 156.93 59.86C158.01 59.86 158.93 60.67 158.93 62.01C158.93 62.63 158.82 63.02 158.69 63.59L158.73 63.63V63.65Z" fill="#92AEB9"/>
<path id="Vector_11" d="M172.17 65.67C172.96 65.67 173.64 65.19 173.99 64.29C174.28 63.59 174.58 62.64 174.58 62.01C174.58 60.8 174.05 60.28 173.15 60.28C171.77 60.28 170.82 62.26 170.82 64.1C170.82 64.87 171.13 65.68 172.16 65.68M170.21 73.76C173.31 73.76 174.53 73.06 174.53 71.98C174.53 70.33 171.98 71.08 168.25 70.38C167.37 70.62 166.82 71.17 166.82 71.94C166.82 72.71 167.39 73.76 170.2 73.76M170.33 65.77C169.17 65.44 168.27 64.61 168.27 63.29C168.27 61.6 169.85 59.91 173.16 59.89C173.58 58.53 174.5 57.26 176.1 57.26C177.07 57.26 177.46 57.79 177.46 58.38C177.46 58.93 177.04 59.59 176.19 59.59C175.34 59.59 175.25 59.09 174.54 59.09C173.83 59.09 173.79 59.59 173.75 59.9C175.75 60.19 177.11 61.13 177.11 62.62C177.11 65.36 174.15 66.09 171.38 66.09C169.69 66.09 168.97 66.6 168.97 67.27C168.97 69.64 176.54 67.18 176.54 70.91C176.54 73.52 173.29 74.29 170.2 74.29C167.68 74.29 165.68 73.65 165.68 72.27C165.68 71.22 166.23 70.76 167.79 70.1C167.22 69.73 166.87 69.2 166.87 68.52C166.87 66.81 168.47 66.08 170.34 65.82V65.78L170.33 65.77Z" fill="#92AEB9"/>
<path id="Vector_12" d="M77.3701 32.29C77.3701 37.34 80.3301 42.12 85.8201 42.12C91.3101 42.12 94.4401 37.56 94.4401 32.35C94.4401 27.14 91.2001 23.02 85.7701 23.02C80.6601 23.02 77.3701 27.47 77.3701 32.3M98.6201 45.48H94.2301V41.91H94.1201C91.8701 44.76 88.8501 46.19 85.2201 46.19C77.6401 46.19 72.8701 39.77 72.8701 32.63C72.8701 25.49 77.5401 18.96 85.2801 18.96C88.7901 18.96 91.9801 20.61 94.1201 23.35H94.2301V19.67H98.6201V45.47V45.48Z" fill="white"/>
<path id="Vector_13" d="M111.45 0H107.06V45.3H111.45V0Z" fill="white"/>
<path id="Vector_14" d="M124.19 0.209961H119.8V45.47H124.19V0.209961Z" fill="white"/>
<path id="Vector_15" d="M138.97 22.4599H139.08C140.62 20.4299 141.94 18.95 144.79 18.95C146.27 18.95 147.48 19.44 148.74 20.16L146.65 24.17C145.77 23.57 145.17 23.02 144.01 23.02C139.18 23.02 138.96 29.2299 138.96 32.57V45.47H134.57V19.67H138.96V22.4699L138.97 22.4599Z" fill="white"/>
<path id="Vector_16" d="M155.68 32.29C155.68 37.34 158.64 42.12 164.13 42.12C169.62 42.12 172.75 37.56 172.75 32.35C172.75 27.14 169.51 23.02 164.08 23.02C158.97 23.02 155.68 27.47 155.68 32.3M176.93 45.48H172.54V41.91H172.43C170.18 44.76 167.16 46.19 163.53 46.19C155.95 46.19 151.18 39.77 151.18 32.63C151.18 25.49 155.85 18.96 163.59 18.96C167.1 18.96 170.29 20.61 172.43 23.35H172.54V19.67H176.93V45.47V45.48Z" fill="white"/>
<path id="Vector_17" d="M16.95 43.85C16.95 49.94 20.52 55.7 27.14 55.7C33.76 55.7 37.53 50.21 37.53 43.92C37.53 37.63 33.62 32.67 27.07 32.67C20.91 32.67 16.94 38.03 16.94 43.86M42.56 59.75H37.26V55.45H37.13C34.42 58.89 30.77 60.61 26.41 60.61C17.28 60.61 11.52 52.87 11.52 44.26C11.52 35.65 17.15 27.78 26.48 27.78C30.72 27.78 34.55 29.77 37.14 33.08H37.27V28.65H42.57V59.76L42.56 59.75Z" fill="#102237"/>
<path id="Vector_18" d="M42.58 59.7299L56.13 39.3199H50.84L37.28 59.7299H42.58Z" fill="#92AEB9"/>
<path id="Vector_19" d="M72.8601 50.38H177.48" stroke="#92AEB9" stroke-width="0.86" stroke-miterlimit="10"/>
<path id="Vector_20" d="M48.1899 43.3099H53.4899L56.1299 39.3199H50.8399L48.1899 43.3099Z" fill="#E30413"/>
<path id="Vector_21" d="M130.85 9.48999H119.81V13.55H130.85V9.48999Z" fill="#E30413"/>
</g>
<defs>
<clipPath id="clip0_146_40887">
<rect width="177.48" height="74.27" fill="white"/>
</clipPath>
</defs>
</svg>

<svg width="178" height="75" viewBox="0 0 178 75" fill="none" xmlns="http://www.w3.org/2000/svg"><g clip-path="url(#clip0_146_40887)"><path d="M59.2 44.67c0 16.35-13.25 29.6-29.6 29.6S0 61.02 0 44.67s13.25-29.6 29.6-29.6 29.6 13.25 29.6 29.6z" fill="#fff"/><path d="M78.63 68.83c1.32 0 2.06-.51 2.52-.99.46-.46.57-.75.75-.75.13 0 .22.09.22.22 0 .24-1.38 2.88-4.94 2.88-2.28 0-4.32-1.87-4.32-4.39 0-3.45 3.62-5.92 6.19-5.92 1.93 0 3.69 1.34 3.69 3.12 0 .92-.66 1.73-1.6 1.73-.83 0-1.29-.61-1.29-1.38 0-.94.48-1.43.48-2.19 0-.35-.39-.75-1.38-.75-2.13 0-3.53 2.41-3.53 4.81 0 2.08 1.32 3.62 3.23 3.62m11.51-8.57c-2.24 0-3.64 3.38-3.64 6.76 0 1.62.7 2.77 1.93 2.77 2.24 0 3.64-3.38 3.64-6.76 0-1.62-.7-2.76-1.93-2.76m4.61 4.13c0 2.88-2.74 5.79-6.25 5.79-1.95 0-4.67-1.29-4.67-4.52 0-2.88 2.74-5.79 6.25-5.79 1.95 0 4.67 1.29 4.67 4.52zm5.88-.76c1.23-2.61 2.55-3.78 4.06-3.78 1.6 0 2.33.97 2.33 2.5 0 1.32-1.29 5.31-1.29 6.06 0 .4.24.75.72.75.55 0 1.08-.51 1.4-1.14.44-.86.37-1.21.61-1.21.15 0 .22.09.22.28 0 .26-.88 3.07-3.34 3.07-1.25 0-1.95-1.01-1.95-2.04 0-1.16 1.29-5.44 1.29-6.61 0-.51-.31-.79-.75-.79-1.29 0-3.12 3.03-3.75 5.44l-1.05 3.99c-.42-.09-.81-.22-1.23-.22-.42 0-.81.04-1.23.22l1.62-7.29c.13-.55.2-.9.2-1.32 0-.57-.29-.83-.55-.83-.35 0-.86.33-1.25.99-.68 1.14-.59 1.65-.83 1.65-.13 0-.2-.07-.2-.22 0-.57 1.16-3.29 3.16-3.29 1.07 0 2 .81 2 2.15 0 .62-.11 1.01-.24 1.58l.04.04.01.02zm14.06-3.77c1.67 0 3.64.83 3.64 2.3 0 .61-.42 1.08-1.05 1.08-2.5 0-.2-2.98-2.76-2.98-1.14 0-2.09.64-2.09 1.51 0 2 5.11 2.15 5.11 5.05 0 1.98-1.56 3.36-4.57 3.36-3.01 0-3.95-1.47-3.95-2.44 0-.77.55-1.27 1.21-1.27 2.26 0 .13 3.31 2.98 3.31 1.32 0 2.26-.61 2.26-1.78 0-2.22-4.85-2.04-4.85-5.16 0-1.56 1.56-2.98 4.06-2.98m12.02 6.93c-.97 2-2.26 3.38-3.84 3.38-1.76 0-2.5-1.23-2.5-2.41 0-1.89 1.38-5.53 1.38-6.39 0-.39-.22-.72-.7-.72-.55 0-1.08.44-1.65 1.65-.15.33-.22.61-.39.61-.11 0-.17-.07-.17-.2 0-.24.83-2.85 3.09-2.85 1.34 0 2.15.66 2.15 2.17 0 1.29-1.38 5.31-1.38 6.39 0 .59.33 1.05.92 1.05 1.51 0 2.98-3.07 3.29-4.3l1.32-5.22c.37.15.77.31 1.23.31.5 0 .9-.2 1.18-.31-.81 4.02-1.69 7.9-1.69 8.4s.17.94.61.94c.66 0 1.27-1.08 1.62-2.11.09-.26.11-.53.31-.53.13 0 .18.13.18.22 0 .22-.79 3.29-3.01 3.29-1.34 0-2.04-.88-2.04-2.33 0-.46.07-.79.13-1.01l-.04-.04v.01zm8.62-10.14c0-1.03-1.62-.83-1.62-1.27 0-.53 1.01-.13 4.65-1.4-.92 4.67-2.79 13.47-2.79 14.2 0 .42.15.72.55.72.59 0 1.03-.61 1.34-1.18.33-.61.44-.88.57-.88.15 0 .22.09.22.22 0 .18-.99 3.12-3.36 3.12-.88 0-1.78-.53-1.78-2.06 0-.83 2.22-10.58 2.22-11.46m11 4.64h-2.55c-.57 3.01-1.29 5.92-1.29 6.54 0 .81.59 1.18 1.14 1.18.79 0 1.32-.39 1.78-.77.29-.24.37-.35.44-.35.11 0 .18.07.18.17 0 .2-1.25 2.09-3.69 2.09-1.73 0-2.39-.81-2.39-2.11 0-.66.66-3.23 1.38-6.76h-1.67c1.01-.68 3.44-2.48 5.05-4.39h.04l-.7 3.12h2.85l-.57 1.27v.01zm5.61-6.67c.88 0 1.58.7 1.58 1.51 0 .77-.68 1.78-1.82 1.78-.53 0-1.56-.29-1.56-1.62 0-.83.81-1.67 1.8-1.67zm-.04 7.04c0 .97-1.56 6.03-1.56 6.63 0 .46.22.72.66.72.77 0 1.36-1.12 1.65-1.73.13-.28.2-.39.29-.39.11 0 .2.07.2.18 0 .09-.77 3.09-3.4 3.09-1.03 0-1.84-.66-1.84-1.93 0-1.41 1.56-5.77 1.56-6.74 0-.42-.24-.64-.55-.64-.4 0-.9.37-1.38 1.18-.46.79-.53 1.27-.72 1.27-.09 0-.15-.07-.15-.18 0-.46 1.12-3.29 3.45-3.29 1.14 0 1.82.7 1.82 1.82m6.79 1.97c1.23-2.61 2.55-3.78 4.06-3.78 1.6 0 2.33.97 2.33 2.5 0 1.32-1.29 5.31-1.29 6.06 0 .4.24.75.73.75.55 0 1.07-.51 1.4-1.14.44-.86.37-1.21.61-1.21.15 0 .22.09.22.28 0 .26-.88 3.07-3.34 3.07-1.25 0-1.95-1.01-1.95-2.04 0-1.16 1.29-5.44 1.29-6.61 0-.51-.31-.79-.75-.79-1.29 0-3.11 3.03-3.75 5.44l-1.05 3.99c-.42-.09-.81-.22-1.23-.22-.42 0-.81.04-1.23.22l1.62-7.29c.13-.55.2-.9.2-1.32 0-.57-.29-.83-.55-.83-.35 0-.85.33-1.25.99-.68 1.14-.59 1.65-.83 1.65-.13 0-.2-.07-.2-.22 0-.57 1.16-3.29 3.16-3.29 1.08 0 2 .81 2 2.15 0 .62-.11 1.01-.24 1.58l.04.04v.02zm13.44 2.02c.79 0 1.47-.48 1.82-1.38.29-.7.59-1.65.59-2.28 0-1.21-.53-1.73-1.43-1.73-1.38 0-2.33 1.98-2.33 3.82 0 .77.31 1.58 1.34 1.58m-1.95 8.08c3.1 0 4.32-.7 4.32-1.78 0-1.65-2.55-.9-6.28-1.6-.88.24-1.43.79-1.43 1.56s.57 1.82 3.38 1.82m.13-7.99c-1.16-.33-2.06-1.16-2.06-2.48 0-1.69 1.58-3.38 4.89-3.4.42-1.36 1.34-2.63 2.94-2.63.97 0 1.36.53 1.36 1.12 0 .55-.42 1.21-1.27 1.21-.85 0-.94-.5-1.65-.5s-.75.5-.79.81c2 .29 3.36 1.23 3.36 2.72 0 2.74-2.96 3.47-5.73 3.47-1.69 0-2.41.51-2.41 1.18 0 2.37 7.57-.09 7.57 3.64 0 2.61-3.25 3.38-6.34 3.38-2.52 0-4.52-.64-4.52-2.02 0-1.05.55-1.51 2.11-2.17-.57-.37-.92-.9-.92-1.58 0-1.71 1.6-2.44 3.47-2.7v-.04l-.01-.01z" fill="#92AEB9"/><path d="M77.37 32.29c0 5.05 2.96 9.83 8.45 9.83 5.49 0 8.62-4.56 8.62-9.77s-3.24-9.33-8.67-9.33c-5.11 0-8.4 4.45-8.4 9.28m21.25 13.18h-4.39v-3.57h-.11c-2.25 2.85-5.27 4.28-8.9 4.28-7.58 0-12.35-6.42-12.35-13.56 0-7.14 4.67-13.67 12.41-13.67 3.51 0 6.7 1.65 8.84 4.39h.11v-3.68h4.39v25.81zM111.45 0h-4.39v45.3h4.39V0zm12.74.21h-4.39v45.26h4.39V.21zm14.78 22.25h.11c1.54-2.03 2.86-3.51 5.71-3.51 1.48 0 2.69.49 3.95 1.21l-2.09 4.01c-.88-.6-1.48-1.15-2.64-1.15-4.83 0-5.05 6.21-5.05 9.55v12.9h-4.39v-25.8h4.39v2.8l.01-.01zm16.71 9.83c0 5.05 2.96 9.83 8.45 9.83 5.49 0 8.62-4.56 8.62-9.77s-3.24-9.33-8.67-9.33c-5.11 0-8.4 4.45-8.4 9.28m21.25 13.18h-4.39v-3.57h-.11c-2.25 2.85-5.27 4.28-8.9 4.28-7.58 0-12.35-6.42-12.35-13.56 0-7.14 4.67-13.67 12.41-13.67 3.51 0 6.7 1.65 8.84 4.39h.11v-3.68h4.39v25.81z" fill="#fff"/><path d="M16.95 43.85c0 6.09 3.57 11.85 10.19 11.85 6.62 0 10.39-5.49 10.39-11.78 0-6.29-3.91-11.25-10.46-11.25-6.16 0-10.13 5.36-10.13 11.19m25.62 15.89h-5.3v-4.3h-.13c-2.71 3.44-6.36 5.16-10.72 5.16-9.13 0-14.89-7.74-14.89-16.35 0-8.61 5.63-16.48 14.96-16.48 4.24 0 8.07 1.99 10.66 5.3h.13v-4.43h5.3v31.11l-.01-.01z" fill="#102237"/><path d="M42.58 59.73l13.55-20.41h-5.29L37.28 59.73h5.3z" fill="#92AEB9"/><path d="M72.86 50.38h104.62" stroke="#92AEB9" stroke-width=".86" stroke-miterlimit="10"/><path d="M48.19 43.31h5.3l2.64-3.99h-5.29l-2.65 3.99zm82.66-33.82h-11.04v4.06h11.04V9.49z" fill="#E30413"/></g><defs><clipPath id="clip0_146_40887"><path fill="#fff" d="M0 0h177.48v74.27H0z"/></clipPath></defs></svg>
